gy/si-glyph-helmet.svg

<svg viewBox="0 0 17 16" xmlns="http://www.w3.org/2000/svg" class="si-glyph si-glyph-helmet" height="1em" width="1em">
  <path d="M15.706 8.697h-.124c-.344-3.754-3.457-6.693-7.253-6.693-4.026 0-7.288 3.305-7.288 7.383 0 2.579 1.192 4.589 5.218 4.589 3.146 0 1.98-2.803 5.315-4.026h4.132c.702 0 1.272-.271 1.272-.601v-.051c.001-.331-.57-.601-1.272-.601Zm-9.644 2.345H4.937V9.958h1.125v1.084Z" fill="#434343" class="si-glyph-fill" fill-rule="evenodd"/>
</svg>

<svg viewBox="0 0 17 16" version="1.1" xmlns="http://www.w3.org/2000/svg" class="si-glyph si-glyph-helmet" height="1em" width="1em">
  <g stroke="none" stroke-width="1" fill="none" fill-rule="evenodd">
    <path d="M15.706,8.697 L15.582,8.697 C15.238,4.943 12.125,2.004 8.329,2.004 C4.303,2.004 1.041,5.309 1.041,9.387 C1.041,11.966 2.233,13.976 6.259,13.976 C9.405,13.976 8.239,11.173 11.574,9.95 L15.706,9.95 C16.408,9.95 16.978,9.679 16.978,9.349 L16.978,9.298 C16.979,8.967 16.408,8.697 15.706,8.697 L15.706,8.697 Z M6.062,11.042 L4.937,11.042 L4.937,9.958 L6.062,9.958 L6.062,11.042 L6.062,11.042 Z" fill="#434343" class="si-glyph-fill"/>
  </g>
</svg>
